symbols/web/mobile_friendly/materialsymbolssharp/mobile_friendly_wght500fill1_24px.svg

<svg xmlns="http://www.w3.org/2000/svg" height="24" width="24"><path d="m15.2 16.025-4.35-4.35 1.55-1.55 2.8 2.775 5.575-5.575 1.55 1.55Zm-11.375 7.15V.825h14.35V7H15.9v-.9H6.1v11.8h9.8V17h2.275v6.175Z"/></svg>

<svg xmlns="http://www.w3.org/2000/svg" height="24" width="24"><path d="M15.2 16.025 10.85 11.675 12.4 10.125 15.2 12.9 20.775 7.325 22.325 8.875ZM3.825 23.175V0.825H18.175V7H15.9V6.1H6.1V17.9H15.9V17H18.175V23.175Z"/></svg>
